dist/img/expert/1800.svg

<svg width="183" height="44" viewBox="0 0 183 44" fill="none" xmlns="http://www.w3.org/2000/svg">
<path d="M43.9688 2.01758C45.3685 1.56185 45.694 2.19661 44.9453 3.92188C38.5651 9 31.2409 17.252 22.9727 28.6777L15.6973 37.6133C14.265 39.6966 12.4746 40.9336 10.3262 41.3242C8.21029 41.7148 7.78711 40.8522 9.05664 38.7363L20.9707 24.3809L23.168 20.5723C12.7839 23.4694 6.35482 26.4967 3.88086 29.6543C1.96029 29.6543 1 29.0846 1 27.9453C0.967448 26.7734 5.06901 24.3646 13.3047 20.7188L22.8262 15.8848C24.3236 15.1361 26.4557 14.0618 29.2227 12.6621L43.9688 2.01758ZM65.209 2.35938C71.0033 0.796875 74.2259 1.98503 74.877 5.92383C75.5605 9.86263 74.2096 13.4922 70.8242 16.8125C67.4388 20.1003 64.3626 22.1836 61.5957 23.0625C58.8288 23.9414 56.4036 24.6576 54.3203 25.2109C52.2695 25.7318 50.4141 28.1732 48.7539 32.5352C47.0938 36.8971 44.1641 39.7454 39.9648 41.0801C32.1198 42.6426 28.9297 39.8757 30.3945 32.7793C30.9479 30.5658 36.4004 27.3431 46.752 23.1113C48.7376 20.7025 50.5443 16.9915 52.1719 11.9785C55.069 7.12826 59.4147 3.92188 65.209 2.35938ZM53.2461 21.4023C57.0221 21.0768 60.375 20.0026 63.3047 18.1797C66.2344 16.3242 68.627 13.4271 70.4824 9.48828C71.6217 6.36328 70.0267 5.17513 65.6973 5.92383C58.6009 8.52799 54.4505 13.6875 53.2461 21.4023ZM34.3496 34.0977C33.1126 36.8971 34.4147 38.1178 38.2559 37.7598C41.5436 37.2064 44.1478 34.7161 46.0684 30.2891L47.875 26.8711C43.1875 28.043 38.679 30.4518 34.3496 34.0977ZM103.93 2.01758C107.934 2.96159 110.163 4.73568 110.619 7.33984C111.075 9.94401 110.196 13.5573 107.982 18.1797C105.769 22.7695 101.049 27.4408 93.8223 32.1934C86.6283 36.946 81.7292 39.7454 79.125 40.5918C76.5534 41.4056 74.3398 41.8451 72.4844 41.9102C70.6615 41.9427 69.0013 41.5846 67.5039 40.8359C66.0065 40.0547 65.2578 38.3945 65.2578 35.8555C75.1862 13.2969 88.0768 2.01758 103.93 2.01758ZM71.4102 31.3145C69.4245 35.0579 69.6523 37.2389 72.0938 37.8574C74.5677 38.4434 79.6621 36.4089 87.377 31.7539C95.1243 27.099 100.121 23.0951 102.367 19.7422C104.646 16.3568 105.769 13.2318 105.736 10.3672C105.736 7.47005 103.197 6.15169 98.1191 6.41211C93.041 6.67253 86.8887 10.8066 79.6621 18.8145C76.179 23.4043 73.4284 27.571 71.4102 31.3145ZM149.535 2.01758C153.539 2.96159 155.769 4.73568 156.225 7.33984C156.68 9.94401 155.801 13.5573 153.588 18.1797C151.374 22.7695 146.654 27.4408 139.428 32.1934C132.234 36.946 127.335 39.7454 124.73 40.5918C122.159 41.4056 119.945 41.8451 118.09 41.9102C116.267 41.9427 114.607 41.5846 113.109 40.8359C111.612 40.0547 110.863 38.3945 110.863 35.8555C120.792 13.2969 133.682 2.01758 149.535 2.01758ZM117.016 31.3145C115.03 35.0579 115.258 37.2389 117.699 37.8574C120.173 38.4434 125.268 36.4089 132.982 31.7539C140.73 27.099 145.727 23.0951 147.973 19.7422C150.251 16.3568 151.374 13.2318 151.342 10.3672C151.342 7.47005 148.803 6.15169 143.725 6.41211C138.646 6.67253 132.494 10.8066 125.268 18.8145C121.785 23.4043 119.034 27.571 117.016 31.3145ZM176.635 14.3223C177.351 14.127 177.823 14.3711 178.051 15.0547C178.311 15.7057 177.823 17.0566 176.586 19.1074L174.291 24.1855L176 24.332L181.371 25.3086C182.022 26.2852 181.859 26.9688 180.883 27.3594C175.056 26.0898 171.345 27.5221 169.75 31.6562L167.699 35.0742C167.113 35.4648 166.625 35.3346 166.234 34.6836C166.169 32.8932 166.837 30.582 168.236 27.75L161.84 27.2617H158.91C157.771 26.6107 157.966 25.7969 159.496 24.8203L163.549 24.5762L166.723 24.332L170.336 23.9414L172.973 18.7656C174.73 15.9661 175.951 14.485 176.635 14.3223Z" fill="#3A4143"/>
</svg>

<svg width="183" height="44" viewBox="0 0 183 44" fill="none" xmlns="http://www.w3.org/2000/svg"><path d="M43.969 2.018c1.4-.456 1.725.179.976 1.904C38.565 9 31.241 17.252 22.973 28.678l-7.276 8.935c-1.432 2.084-3.222 3.32-5.37 3.711-2.117.39-2.54-.472-1.27-2.588L20.97 24.381l2.197-3.809C12.784 23.47 6.355 26.497 3.881 29.654c-1.92 0-2.881-.57-2.881-1.709-.033-1.172 4.069-3.58 12.305-7.226l9.521-4.834c1.498-.749 3.63-1.823 6.397-3.223L43.969 2.018zm21.24.341c5.794-1.562 9.017-.374 9.668 3.565.684 3.939-.667 7.568-4.053 10.889-3.385 3.287-6.461 5.37-9.228 6.25-2.767.878-5.192 1.595-7.276 2.148-2.05.52-3.906 2.962-5.566 7.324-1.66 4.362-4.59 7.21-8.79 8.545-7.844 1.563-11.034-1.204-9.57-8.3.554-2.214 6.006-5.437 16.358-9.669 1.986-2.409 3.792-6.12 5.42-11.133 2.897-4.85 7.243-8.056 13.037-9.619zM53.246 21.402c3.776-.325 7.129-1.4 10.059-3.222 2.93-1.856 5.322-4.753 7.177-8.692 1.14-3.125-.455-4.313-4.785-3.564-7.096 2.604-11.247 7.763-12.45 15.478zM34.35 34.098c-1.237 2.8.065 4.02 3.906 3.662 3.288-.554 5.892-3.044 7.812-7.47l1.807-3.419c-4.688 1.172-9.196 3.58-13.525 7.227zm69.58-32.08c4.004.944 6.233 2.718 6.689 5.322.456 2.604-.423 6.217-2.637 10.84-2.213 4.59-6.933 9.26-14.16 14.013-7.194 4.753-12.093 7.552-14.697 8.399-2.572.814-4.785 1.253-6.64 1.318-1.823.033-3.484-.325-4.981-1.074-1.498-.781-2.246-2.441-2.246-4.98 9.928-22.56 22.819-33.838 38.672-33.838zM71.41 31.314c-1.986 3.744-1.758 5.925.684 6.543 2.474.586 7.568-1.448 15.283-6.103 7.747-4.655 12.744-8.659 14.99-12.012 2.279-3.385 3.402-6.51 3.369-9.375 0-2.897-2.539-4.215-7.617-3.955-5.078.26-11.23 4.395-18.457 12.402-3.483 4.59-6.234 8.757-8.252 12.5zm78.125-29.296c4.004.944 6.234 2.718 6.69 5.322.455 2.604-.424 6.217-2.637 10.84-2.214 4.59-6.934 9.26-14.16 14.013-7.194 4.753-12.093 7.552-14.698 8.399-2.571.814-4.785 1.253-6.64 1.318-1.823.033-3.483-.325-4.981-1.074-1.497-.781-2.246-2.441-2.246-4.98 9.929-22.56 22.819-33.838 38.672-33.838zm-32.519 29.296c-1.986 3.744-1.758 5.925.683 6.543 2.474.586 7.569-1.448 15.283-6.103 7.748-4.655 12.745-8.659 14.991-12.012 2.278-3.385 3.401-6.51 3.369-9.375 0-2.897-2.539-4.215-7.617-3.955-5.079.26-11.231 4.395-18.457 12.402-3.483 4.59-6.234 8.757-8.252 12.5zm59.619-16.992c.716-.195 1.188.05 1.416.733.26.65-.228 2.002-1.465 4.052l-2.295 5.079 1.709.146 5.371.977c.651.976.488 1.66-.488 2.05-5.827-1.27-9.538.163-11.133 4.297l-2.051 3.418c-.586.39-1.074.26-1.465-.39-.065-1.79.603-4.102 2.002-6.934l-6.396-.488h-2.93c-1.139-.651-.944-1.465.586-2.442l4.053-.244 3.174-.244 3.613-.39 2.637-5.176c1.757-2.8 2.978-4.281 3.662-4.444z" fill="#3A4143"/></svg>
